FINK
CUT[DES MORGENS ZWISCHENDREIN UND VIEREN]
REG[Europa, Mitteleuropa, Deutschland]
KEY[F0580A 08 Eb 4/4]
MEL[13  555+13_1_  6_5_0_
    13  55556543  3_2_0_
    13  5_.34345  3_0__
    +16  5_.35432  1_0
    15555  53421555  5342
    +1+176  5_.35434  3_0__ //] >>
FCT[Soldaten - Lied]
